X:1
T: The Crooked Way to Dublin
T: 2nd setting
R:Reel
Q: 232
K:G
M:4/4
L:1/8
GE DB cA BG|AG BG AE E2|GE DB cA BG|Ac BG A2 G2|
GE DB cA BG|AG BG AE E2|GE DE GA Bd|ed cA G2 G2|
|:Bd d2 ef ge|d2 BG AE E2|Bd d2 ef ge|dB GB A2 A2|
Bd d2 ef ge|d2 BG AE E2|GE DE G2 AB|dB GB Ac BA:|
GE DB cA BG|AG BG AE E2|GE DB cA BG|Ac BG A2 G2|
GE DB cA BG|AG BG AE E2|GE DE GA Bd|ed cA G2 G2||
